X:49
T:True Courage. RHu.049
S:R.Hughes MS,1823,Whitchurch,Shrops.
A:Whitchurch, Shropshire
Z:Neil Brookes 2006
M:3/4
L:1/8
Q:3/4=40
R:Air
K:G
GA|B2d2d2|c2e2g2|d2B2G2|F2A2A2|B2G2E2|c2A2AG|F2DEFD|G4GA|!
B2d2d2|c2e2g2|d2B2G2|F2A2A2|d2B2B2|g2e2ed|c2AB^cA|d4::!
ef|g2f2e2|d2B2G2|G2F2G2|A2F2D2|g2f2e2|d2B2G2|G3AB2|B2A2D2|!
G3AB2|D2G2B2|A3Bc2|E2A2B2|cBcdef|g2d2c2|B2A2G2|F2E2D2|!
E2e2e2|e4 dc|B2d2d2|d4 ef|g2d2e2|d2B2G2|A2G2F2|G4:|

